assets/img/braze_icons/chevron-up.svg

<svg fill="none" height="24" viewBox="0 0 24 24" width="24" xmlns="http://www.w3.org/2000/svg"><path clip-rule="evenodd" d="m11.2929 8.29289c.3905-.39052 1.0237-.39052 1.4142 0l6 6.00001c.3905.3905.3905 1.0237 0 1.4142s-1.0237.3905-1.4142 0l-5.2929-5.2929-5.29289 5.2929c-.39053.3905-1.02369.3905-1.41422 0-.39052-.3905-.39052-1.0237 0-1.4142z" fill="#801ed7" fill-rule="evenodd"/></svg>

<svg width="24" height="24" viewBox="0 0 24 24" fill="none" xmlns="http://www.w3.org/2000/svg">
<path fill-rule="evenodd" clip-rule="evenodd" d="M11.2929 8.29289C11.6834 7.90237 12.3166 7.90237 12.7071 8.29289L18.7071 14.2929C19.0976 14.6834 19.0976 15.3166 18.7071 15.7071C18.3166 16.0976 17.6834 16.0976 17.2929 15.7071L12 10.4142L6.70711 15.7071C6.31658 16.0976 5.68342 16.0976 5.29289 15.7071C4.90237 15.3166 4.90237 14.6834 5.29289 14.2929L11.2929 8.29289Z" fill="#801ED7"/>
</svg>
